X:119
T:Valse du d&amp;#233;part (Thierry Laplaud)
C:Trad 1, 93
M:5/4
L:1/4
K:C
E|ABc2c|dBc2e|dcB2E|cBA2:|\
|:a|gfe2A|cde2d/c/|
B/c/dece|dge2a|\
gfe2A|cde2d/c/|B/c/decA|BGA2:|
